!!!Rep U0308
!!!Isim(Name): Muradı Böyle
!!!Yore(Region): Şanlıurfa
!!!Makam: Hüseyni (Asma Karar)
!!!Arizalar(Accidentals): b-2
!!!Usul: 10/8
**kern	**Dcent
*staff1	*.
=1-	=1-
*clefX5	*.
*k[b-]	*.
*M10/8	*.
!!linebreak:default
*clefG2	*.
8cc	0
8dd	0
8ee	0
ffq	0
8ee	0
ffq	0
8dd	0
8dd	0
8cc	0
8dd	0
8cc	0
8b-	50
=2	=2
8cc	0
8dd	0
16ee	0
16ff	0
16ee	0
16ff	0
8dd	0
16dd	0
16ee	0
8cc	0
4dd	0
8r	.
=3:!	=3:!
!!linebreak:default
=4!:	=4!:
8gg	0
8ff#	0
8gg	0
8ff#	0
8ee	0
8ffn	0
8ee	0
8ff	0
8ee	0
8dd	0
=5	=5
8cc	0
8dd	0
16ee	0
16ff	0
16ee	0
16ff	0
8dd	0
16dd	0
16ee	0
8cc	0
4dd	0
8r	.
=6:!	=6:!
!!linebreak:default
=7!:	=7!:
8cc	0
8dd	0
8ee	0
ffq	0
8ee	0
ffq	0
8dd	0
8dd	0
8cc	0
8dd	0
8cc	0
8b-	50
=8	=8
8cc	0
8dd	0
16ee	0
16ff	0
16ee	0
16ff	0
8dd	0
16dd	0
16ee	0
8cc	0
4dd	0
8r	.
=9:!	=9:!
!!linebreak:default
8gg	0
8ff#	0
8gg	0
8ff#	0
8ee	0
8ffn	0
8ee	0
8ff	0
8ee	0
8dd	0
=10	=10
8cc	0
8dd	0
16ee	0
16ff	0
16ee	0
8ff	0
8dd	0
16dd	0
16ee	0
8cc	0
4dd	0
8r	.
=11	=11
!!linebreak:default
8gg	0
8ff#	0
8gg	0
8ff#	0
8ee	0
8ffn	0
8ee	0
8ff	0
8ee	0
8dd	0
=12	=12
8cc	0
8dd	0
16ee	0
16ff	0
16ee	0
16ff	0
8dd	0
16dd	0
16ee	0
8cc	0
4.dd	0
==	==
*-	*-
!! Uzun Hava Humdrum Bilgi Bankasi (Uzun Hava Humdrum Database)
!! 
!! Sertan Senturk, Parag Chordia & Erdal Tugcular
!! Georgia Tech Center for Music Technology, 2011
